X:144
T:Justice Guttle
M:6/8
L:1/8
B:Thompson's Compleat Collection of 200 Favourite Country Dances, vol. 1 (London, 1757)
Z:Transcribed and edited by Flynn Titford-Mock, 2007
Z:abc's:AK/Fiddler's Companion
K:A
E|Ace fga|ecA fdB|Ace fga|ecA f2a|Ace fga|ecA fdB|ecA BGE|cdB A2:|
|:f/g/|aec fdB|ecA BGE|aec fdB|ecA f2 f/g/|aec fdB|ecA BGE|cea fdB|cdB A2:|

